ix/message-2_outline.svg

<svg viewBox="0 0 24 24" fill="none" xmlns="http://www.w3.org/2000/svg" height="1em" width="1em">
  <path d="M15.5 11.25H8.5C8.09 11.25 7.75 10.91 7.75 10.5C7.75 10.09 8.09 9.75 8.5 9.75H15.5C15.91 9.75 16.25 10.09 16.25 10.5C16.25 10.91 15.91 11.25 15.5 11.25Z" fill="#292D32"/>
  <path d="M16 22.3199C15.66 22.3199 15.32 22.22 15.03 22.03L10.77 19.1899H7C3.56 19.1899 1.25 16.8799 1.25 13.4399V7.43994C1.25 3.99994 3.56 1.68994 7 1.68994H17C20.44 1.68994 22.75 3.99994 22.75 7.43994V13.4399C22.75 16.6199 20.77 18.84 17.75 19.15V20.5699C17.75 21.2199 17.4 21.8099 16.83 22.1099C16.57 22.2499 16.28 22.3199 16 22.3199ZM7 3.17993C4.42 3.17993 2.75 4.84993 2.75 7.42993V13.4299C2.75 16.0099 4.42 17.6799 7 17.6799H11C11.15 17.6799 11.29 17.7199 11.42 17.8099L15.87 20.77C15.98 20.84 16.08 20.81 16.13 20.78C16.18 20.75 16.26 20.6899 16.26 20.5599V18.4299C16.26 18.0199 16.6 17.6799 17.01 17.6799C19.59 17.6799 21.26 16.0099 21.26 13.4299V7.42993C21.26 4.84993 19.59 3.17993 17.01 3.17993H7Z" fill="#292D32"/>
</svg>

<svg viewBox="0 0 24 24" fill="none" xmlns="http://www.w3.org/2000/svg" height="1em" width="1em">
  <path d="M15.5 11.25h-7c-.41 0-.75-.34-.75-.75s.34-.75.75-.75h7c.41 0 .75.34.75.75s-.34.75-.75.75Z" fill="#292D32"/>
  <path d="M16 22.32c-.34 0-.68-.1-.97-.29l-4.26-2.84H7c-3.44 0-5.75-2.31-5.75-5.75v-6C1.25 4 3.56 1.69 7 1.69h10c3.44 0 5.75 2.31 5.75 5.75v6c0 3.18-1.98 5.4-5 5.71v1.42c0 .65-.35 1.24-.92 1.54-.26.14-.55.21-.83.21ZM7 3.18c-2.58 0-4.25 1.67-4.25 4.25v6c0 2.58 1.67 4.25 4.25 4.25h4c.15 0 .29.04.42.13l4.45 2.96c.11.07.21.04.26.01.05-.03.13-.09.13-.22v-2.13c0-.41.34-.75.75-.75 2.58 0 4.25-1.67 4.25-4.25v-6c0-2.58-1.67-4.25-4.25-4.25H7Z" fill="#292D32"/>
</svg>
